public/style/workarea/images/icons/exe-evaluation-icon-green.svg

<svg fill="none" height="19" viewBox="0 0 19 19" width="19" xmlns="http://www.w3.org/2000/svg"><g stroke="#0ba0a0" stroke-linecap="round" stroke-linejoin="round" stroke-width="1.5"><path d="m9.90088 15.093h6.75002"/><path d="m13.2759 2.718c.2983-.29836.703-.46599 1.125-.46599.2089 0 .4158.04116.6088.12111.1931.07996.3684.19715.5162.34488.1477.14774.2649.32313.3449.51616.0799.19303.1211.39991.1211.60884 0 .20894-.0412.41582-.1211.60885-.08.19303-.1972.36842-.3449.51615l-9.37502 9.375-3 .75.75-3z"/></g></svg>

<svg width="19" height="19" viewBox="0 0 19 19" fill="none" xmlns="http://www.w3.org/2000/svg">
<path d="M9.90088 15.093H16.6509" stroke="#0BA0A0" stroke-width="1.5" stroke-linecap="round" stroke-linejoin="round"/>
<path d="M13.2759 2.718C13.5742 2.41964 13.9789 2.25201 14.4009 2.25201C14.6098 2.25201 14.8167 2.29317 15.0097 2.37312C15.2028 2.45308 15.3781 2.57027 15.5259 2.718C15.6736 2.86574 15.7908 3.04113 15.8708 3.23416C15.9507 3.42719 15.9919 3.63407 15.9919 3.843C15.9919 4.05194 15.9507 4.25882 15.8708 4.45185C15.7908 4.64488 15.6736 4.82027 15.5259 4.968L6.15088 14.343L3.15088 15.093L3.90088 12.093L13.2759 2.718Z" stroke="#0BA0A0" stroke-width="1.5" stroke-linecap="round" stroke-linejoin="round"/>
</svg>
